src/assets/tokens/sanFRAX_EUR.svg

<svg width="149" height="82" viewBox="0 0 149 82" fill="none" xmlns="http://www.w3.org/2000/svg">
<g clip-path="url(#clip0_6737_287891)">
<path d="M41 81C18.9086 81 1 63.0914 1 41C1 18.9086 18.9086 1 41 1C63.0914 1 81 18.9086 81 41C81 63.0914 63.0914 81 41 81Z" fill="black" stroke="black" stroke-width="1.2373" stroke-miterlimit="11.3386"/>
<path d="M63.0668 18.7512C64.7534 20.5221 66.1449 22.0119 66.1589 22.04C66.173 22.0822 64.655 23.572 62.7858 25.3429C60.9165 27.1279 59.2861 28.6879 59.1737 28.7863L58.9628 28.9831L59.3423 29.6156C62.6733 35.1251 63.362 41.7589 61.2678 47.8587C60.8743 49.0112 60.1997 50.487 59.6234 51.4567C59.3423 51.9346 59.2158 52.2438 59.2439 52.3C59.272 52.3563 60.9727 54.1553 63.0247 56.3057C65.0767 58.442 66.7492 60.227 66.7773 60.2551C66.7914 60.2972 61.043 65.8489 60.4948 66.2986L60.284 66.4813L57.0373 63.0941C55.2524 61.2248 53.5798 59.468 53.3269 59.2009L52.849 58.7231L52.3992 59.0042C50.1083 60.4659 47.4238 61.4778 44.4583 62.0119C42.9685 62.279 40.1294 62.3492 38.5412 62.1525C35.4772 61.8011 32.4414 60.7751 29.9537 59.2712L29.3072 58.8777L28.6185 59.5523C27.1146 61.014 21.4927 66.3549 21.4365 66.383C21.3803 66.4111 15.2102 59.9599 15.2243 59.8756C15.2383 59.8334 19.4688 55.7716 22.0549 53.3401L22.9122 52.5249L22.5187 51.8784C19.2158 46.383 18.5271 39.721 20.6635 33.579C20.9727 32.6795 21.9144 30.6556 22.4625 29.728L22.7295 29.2642L19.1174 25.4835C17.1357 23.4174 15.5194 21.6887 15.5335 21.6465C15.5897 21.5059 21.9144 15.5326 21.9987 15.5326C22.0549 15.5326 23.6431 17.1489 25.5405 19.1447C27.4379 21.1265 29.012 22.7568 29.0542 22.7709C29.0823 22.7849 29.265 22.7006 29.4337 22.5741C29.9115 22.2508 31.1203 21.5903 31.7949 21.2811C33.8469 20.3394 35.7583 19.7631 37.979 19.4399C39.1315 19.2712 42.589 19.2431 43.6571 19.3977C46.2151 19.7631 48.3093 20.3956 50.4456 21.4638C51.064 21.7589 51.7808 22.1525 52.0619 22.3211L52.5679 22.6303L53.1441 22.0681C53.4534 21.7589 54.8588 20.4378 56.2503 19.1026C57.6417 17.7814 59.0612 16.4322 59.3985 16.0948L60.017 15.4905L63.0668 18.7512ZM39.4688 27.9149C37.2341 28.182 35.2383 28.9409 33.3971 30.234C32.4555 30.8946 31.05 32.3 30.3894 33.2417C26.6368 38.5544 27.3536 45.7786 32.076 50.2059C36.1097 53.9726 41.9425 54.8158 46.8476 52.3141C50.3894 50.501 52.8912 47.1841 53.6923 43.2066C53.9453 41.9416 53.9453 39.5804 53.6923 38.3296C53.4534 37.0927 53.1301 36.2073 52.5257 34.9705C50.1083 30.1075 44.8659 27.2684 39.4688 27.9149Z" fill="white"/>
<g clip-path="url(#clip1_6737_287891)">
<circle cx="108.348" cy="41.3494" r="40.356" fill="url(#paint0_linear_6737_287891)"/>
<path d="M130.362 35.7916L108.319 13.2825L86.2741 35.7916L97.2956 47.045L108.319 35.7916L119.341 47.045L130.362 35.7916Z" fill="white"/>
<path d="M107.431 67.3776C106.335 67.3776 105.392 67.1802 104.602 66.7852C103.825 66.3775 103.226 65.8041 102.806 65.0652C102.398 64.3135 102.194 63.428 102.194 62.4087V53.7322H104.717V62.4851C104.717 63.3006 104.946 63.944 105.405 64.4154C105.877 64.8868 106.552 65.1225 107.431 65.1225C108.31 65.1225 108.979 64.8868 109.438 64.4154C109.909 63.944 110.145 63.3006 110.145 62.4851V53.7322H112.667V62.4087C112.667 63.428 112.457 64.3135 112.037 65.0652C111.629 65.8041 111.03 66.3775 110.24 66.7852C109.463 67.1802 108.527 67.3776 107.431 67.3776Z" fill="#1F2333"/>
<path d="M118.435 67.1101V53.7322H124.245C125.086 53.7322 125.818 53.8787 126.443 54.1717C127.067 54.4648 127.551 54.8788 127.895 55.414C128.239 55.9491 128.411 56.5797 128.411 57.306V57.5353C128.411 58.338 128.22 58.9878 127.838 59.4847C127.456 59.9816 126.984 60.3447 126.424 60.574V60.918C126.933 60.9435 127.328 61.1219 127.608 61.4531C127.889 61.7717 128.029 62.1985 128.029 62.7336V67.1101H125.506V63.0967C125.506 62.7909 125.423 62.5425 125.258 62.3514C125.105 62.1603 124.844 62.0647 124.474 62.0647H120.958V67.1101H118.435ZM120.958 59.7713H123.977C124.576 59.7713 125.041 59.6121 125.372 59.2936C125.716 58.9623 125.888 58.5291 125.888 57.994V57.8029C125.888 57.2678 125.723 56.8409 125.392 56.5224C125.06 56.1911 124.589 56.0255 123.977 56.0255H120.958V59.7713Z" fill="#1F2333"/>
<path fill-rule="evenodd" clip-rule="evenodd" d="M88.05 67.425V53.4172H97.2799V56.3405H91.2025V58.9022H96.7448V61.8254H91.2025V64.5018H97.3946V67.425H88.05ZM104.459 67.0655L104.456 67.0641C103.627 66.6293 102.983 66.0141 102.532 65.2209L102.531 65.2181L102.529 65.2153C102.092 64.4094 101.879 63.4704 101.879 62.4087V53.4172H105.032V62.4852C105.032 63.2383 105.242 63.7951 105.629 64.1943C106.025 64.5886 106.609 64.8076 107.431 64.8076C108.255 64.8076 108.83 64.5879 109.212 64.1958L109.215 64.1927C109.614 63.793 109.83 63.2369 109.83 62.4852V53.4172H112.982V62.4087C112.982 63.4715 112.763 64.4115 112.312 65.2179C111.873 66.0142 111.227 66.6305 110.385 67.0651L110.383 67.066C109.552 67.4884 108.564 67.6926 107.431 67.6926C106.298 67.6926 105.304 67.4884 104.462 67.0669L104.459 67.0655ZM112.037 65.0652C112.457 64.3135 112.667 63.428 112.667 62.4087V53.7322H110.145V62.4851C110.145 63.3006 109.909 63.944 109.438 64.4154C108.979 64.8868 108.31 65.1225 107.431 65.1225C106.552 65.1225 105.877 64.8868 105.405 64.4154C104.946 63.944 104.717 63.3006 104.717 62.4851V53.7322H102.194V62.4087C102.194 63.428 102.398 64.3135 102.806 65.0652C103.226 65.8041 103.825 66.3775 104.602 66.7852C105.392 67.1802 106.335 67.3776 107.431 67.3776C108.527 67.3776 109.463 67.1802 110.24 66.7852C111.03 66.3775 111.629 65.8041 112.037 65.0652ZM118.12 67.425V53.4172H124.245C125.122 53.4172 125.902 53.5701 126.576 53.8866C127.25 54.2027 127.781 54.6545 128.16 55.2437C128.541 55.8365 128.726 56.5281 128.726 57.306V57.5353C128.726 58.3878 128.522 59.111 128.087 59.6767C127.764 60.0974 127.379 60.4322 126.934 60.6784C127.296 60.7749 127.604 60.9619 127.847 61.2474C128.188 61.6369 128.344 62.1437 128.344 62.7336V67.425H125.191V63.0967C125.191 62.8501 125.126 62.6801 125.02 62.5576L125.016 62.553L125.012 62.5481C124.944 62.4635 124.798 62.3796 124.474 62.3796H121.273V67.425H118.12ZM120.958 62.0647H124.474C124.844 62.0647 125.105 62.1603 125.258 62.3514C125.423 62.5425 125.506 62.7909 125.506 63.0967V67.1101H128.029V62.7336C128.029 62.1985 127.889 61.7717 127.608 61.4531C127.328 61.1219 126.933 60.9435 126.424 60.918V60.574C126.984 60.3447 127.456 59.9816 127.838 59.4847C128.22 58.9878 128.411 58.338 128.411 57.5353V57.306C128.411 56.5797 128.239 55.9491 127.895 55.414C127.551 54.8788 127.067 54.4648 126.443 54.1717C125.818 53.8787 125.086 53.7322 124.245 53.7322H118.435V67.1101H120.958V62.0647ZM125.171 56.7473L125.169 56.7451C124.913 56.4894 124.532 56.3405 123.977 56.3405H121.273V59.4564H123.977C124.52 59.4564 124.897 59.3132 125.154 59.0666C125.429 58.8022 125.573 58.4548 125.573 57.994V57.8029C125.573 57.3381 125.432 56.9987 125.173 56.7494L125.171 56.7473ZM125.372 59.2936C125.041 59.6121 124.576 59.7713 123.977 59.7713H120.958V56.0255H123.977C124.589 56.0255 125.06 56.1911 125.392 56.5224C125.723 56.8409 125.888 57.2678 125.888 57.8029V57.994C125.888 58.5291 125.716 58.9623 125.372 59.2936Z" fill="#1F2333"/>
</g>
</g>
<defs>
<linearGradient id="paint0_linear_6737_287891" x1="81.0794" y1="65.8057" x2="126.157" y2="25.7135" gradientUnits="userSpaceOnUse">
<stop offset="0.0729167" stop-color="#AAC4FD"/>
<stop offset="1" stop-color="#76A0FC"/>
</linearGradient>
<clipPath id="clip0_6737_287891">
<rect width="149" height="82" fill="white"/>
</clipPath>
<clipPath id="clip1_6737_287891">
<rect width="81" height="81" fill="white" transform="translate(68 1)"/>
</clipPath>
</defs>
</svg>

<svg fill="none" height="82" width="149" xmlns="http://www.w3.org/2000/svg" xmlns:xlink="http://www.w3.org/1999/xlink"><linearGradient id="a" gradientUnits="userSpaceOnUse" x1="81.079" x2="126.157" y1="65.806" y2="25.713"><stop offset=".073" stop-color="#aac4fd"/><stop offset="1" stop-color="#76a0fc"/></linearGradient><clipPath id="b"><path d="m0 0h149v82h-149z"/></clipPath><clipPath id="c"><path d="m0 0h81v81h-81z" transform="translate(68 1)"/></clipPath><g clip-path="url(#b)"><path d="m41 81c-22.091 0-40-17.909-40-40s17.909-40 40-40 40 17.909 40 40-17.909 40-40 40z" fill="#000" stroke="#000" stroke-miterlimit="11.339" stroke-width="1.237"/><path d="m63.067 18.751c1.686 1.771 3.078 3.26 3.092 3.289.014.042-1.504 1.532-3.373 3.303-1.87 1.785-3.5 3.345-3.612 3.443l-.211.197.38.633c3.33 5.51 4.019 12.143 1.925 18.243-.394 1.152-1.068 2.628-1.645 3.598-.28.478-.407.787-.38.843.029.056 1.73 1.855 3.782 4.006 2.052 2.136 3.724 3.921 3.752 3.95.014.041-5.734 5.593-6.282 6.043l-.211.182-3.247-3.387c-1.785-1.87-3.457-3.626-3.71-3.893l-.478-.478-.45.281c-2.29 1.462-4.975 2.474-7.94 3.008-1.49.267-4.33.337-5.918.14-3.064-.35-6.1-1.377-8.587-2.88l-.647-.394-.688.674c-1.504 1.462-7.126 6.803-7.183 6.831-.056.028-6.226-6.423-6.212-6.507.014-.043 4.245-4.104 6.83-6.536l.858-.815-.393-.647c-3.303-5.495-3.992-12.157-1.855-18.299.309-.9 1.25-2.923 1.798-3.851l.268-.464-3.613-3.78c-1.981-2.067-3.598-3.795-3.584-3.838.057-.14 6.381-6.113 6.466-6.113.056 0 1.644 1.616 3.542 3.612 1.897 1.982 3.471 3.612 3.513 3.626.028.014.211-.07.38-.197.477-.323 1.686-.984 2.36-1.293 2.053-.942 3.964-1.518 6.185-1.841 1.153-.169 4.61-.197 5.678-.042 2.558.365 4.652.998 6.789 2.066.618.295 1.335.689 1.616.857l.506.31.576-.563c.31-.31 1.715-1.63 3.106-2.965 1.392-1.322 2.811-2.67 3.148-3.008l.619-.604 3.05 3.26zm-23.598 9.164a13.02 13.02 0 0 0 -6.072 2.319c-.941.66-2.347 2.066-3.008 3.008-3.752 5.312-3.035 12.537 1.687 16.964 4.034 3.767 9.867 4.61 14.772 2.108 3.541-1.813 6.043-5.13 6.844-9.107.253-1.265.253-3.627 0-4.877-.239-1.237-.562-2.123-1.166-3.36a12.896 12.896 0 0 0 -13.057-7.055z" fill="#fff"/><g clip-path="url(#c)"><circle cx="108.348" cy="41.349" fill="url(#a)" r="40.356"/><path d="m130.362 35.792-22.043-22.51-22.045 22.51 11.022 11.253 11.023-11.253 11.022 11.253z" fill="#fff"/><g fill="#1f2333"><path d="m107.431 67.378c-1.096 0-2.039-.198-2.829-.593a4.331 4.331 0 0 1 -1.796-1.72c-.408-.751-.612-1.637-.612-2.656v-8.677h2.523v8.753c0 .816.229 1.459.688 1.93.472.472 1.147.707 2.026.707s1.548-.235 2.007-.707c.471-.471.707-1.114.707-1.93v-8.753h2.522v8.677c0 1.019-.21 1.905-.63 2.656-.408.74-1.007 1.313-1.797 1.72-.777.395-1.713.593-2.809.593zm11.004-.268v-13.378h5.81c.841 0 1.573.147 2.198.44.624.293 1.108.707 1.452 1.242s.516 1.166.516 1.892v.23c0 .802-.191 1.452-.573 1.949s-.854.86-1.414 1.089v.344c.509.026.904.204 1.184.535.281.319.421.745.421 1.28v4.377h-2.523v-4.013c0-.306-.083-.555-.248-.746-.153-.19-.414-.286-.784-.286h-3.516v5.045zm2.523-7.339h3.019c.599 0 1.064-.159 1.395-.477.344-.332.516-.765.516-1.3v-.191c0-.535-.165-.962-.496-1.28-.332-.332-.803-.498-1.415-.498h-3.019z"/><path clip-rule="evenodd" d="m88.05 67.425v-14.008h9.23v2.923h-6.078v2.562h5.543v2.923h-5.543v2.677h6.193v2.923zm16.409-.36h-.003a4.645 4.645 0 0 1 -1.924-1.844l-.001-.003-.002-.003c-.437-.806-.65-1.745-.65-2.806v-8.992h3.153v9.068c0 .753.21 1.31.597 1.71.396.394.98.613 1.802.613.824 0 1.399-.22 1.781-.612l.003-.003c.399-.4.615-.956.615-1.708v-9.068h3.152v8.992c0 1.063-.219 2.003-.67 2.809-.439.796-1.085 1.412-1.927 1.847l-.002.001c-.831.422-1.819.627-2.952.627s-2.127-.205-2.969-.626l-.003-.001zm7.578-2c.42-.751.63-1.637.63-2.656v-8.677h-2.522v8.753c0 .816-.236 1.459-.707 1.93-.459.472-1.128.707-2.007.707s-1.554-.235-2.026-.707c-.459-.471-.688-1.114-.688-1.93v-8.753h-2.523v8.677c0 1.019.204 1.905.612 2.656a4.331 4.331 0 0 0 1.796 1.72c.79.395 1.733.593 2.829.593s2.032-.198 2.809-.593c.79-.407 1.389-.98 1.797-1.72zm6.083 2.36v-14.008h6.125c.877 0 1.657.153 2.331.47.674.316 1.205.767 1.584 1.357.381.593.566 1.284.566 2.062v.23c0 .852-.204 1.575-.639 2.14-.323.421-.708.756-1.153 1.002.362.097.67.284.913.57.341.389.497.896.497 1.486v4.691h-3.153v-4.328c0-.247-.065-.417-.171-.54l-.004-.004-.004-.005c-.068-.084-.214-.168-.538-.168h-3.201v5.045zm2.838-5.36h3.516c.37 0 .631.095.784.286.165.191.248.44.248.746v4.013h2.523v-4.376c0-.535-.14-.962-.421-1.28-.28-.332-.675-.51-1.184-.536v-.344a3.372 3.372 0 0 0 1.414-1.09c.382-.496.573-1.146.573-1.949v-.229c0-.726-.172-1.357-.516-1.892s-.828-.95-1.452-1.242c-.625-.293-1.357-.44-2.198-.44h-5.81v13.378h2.523zm4.213-5.318-.002-.002c-.256-.256-.637-.404-1.192-.404h-2.704v3.115h2.704c.543 0 .92-.143 1.177-.39.275-.264.419-.611.419-1.072v-.191c0-.465-.141-.804-.4-1.054zm.201 2.547c-.331.318-.796.477-1.395.477h-3.019v-3.745h3.019c.612 0 1.083.165 1.415.496.331.319.496.746.496 1.28v.192c0 .535-.172.968-.516 1.3z" fill-rule="evenodd"/></g></g></g></svg>
